newicons/meteogram.svg

<?xml version="1.0" encoding="UTF-8" standalone="no"?>
<!-- Created with Inkscape (http://www.inkscape.org/) -->

<svg
   width="48"
   height="48"
   viewBox="0 0 48 48"
   version="1.1"
   id="svg1"
   xml:space="preserve"
   inkscape:version="1.4.2 (ebf0e940d0, 2025-05-08)"
   sodipodi:docname="meteogram.svg"
   xmlns:inkscape="http://www.inkscape.org/namespaces/inkscape"
   xmlns:sodipodi="http://sodipodi.sourceforge.net/DTD/sodipodi-0.dtd"
   xmlns="http://www.w3.org/2000/svg"
   xmlns:svg="http://www.w3.org/2000/svg"><sodipodi:namedview
     id="namedview1"
     pagecolor="#ffffff"
     bordercolor="#000000"
     borderopacity="0.25"
     inkscape:showpageshadow="2"
     inkscape:pageopacity="0.0"
     inkscape:pagecheckerboard="true"
     inkscape:deskcolor="#d1d1d1"
     inkscape:document-units="px"
     showguides="true"
     inkscape:zoom="11.691467"
     inkscape:cx="14.070091"
     inkscape:cy="34.384051"
     inkscape:window-width="2560"
     inkscape:window-height="1371"
     inkscape:window-x="0"
     inkscape:window-y="0"
     inkscape:window-maximized="1"
     inkscape:current-layer="layer1"
     showborder="true" /><defs
     id="defs1" /><g
     inkscape:label="Layer 1"
     inkscape:groupmode="layer"
     id="layer1"><circle
       style="fill:#23727b;fill-opacity:0;stroke:#ffffff;stroke-width:1;stroke-linecap:round;stroke-linejoin:round;stroke-dasharray:none;stroke-opacity:1"
       id="path1"
       cx="23.989119"
       cy="23.898594"
       r="9.8677082" /><circle
       style="fill:#23727b;fill-opacity:0;stroke:#ffffff;stroke-width:1;stroke-linecap:round;stroke-linejoin:round;stroke-dasharray:none;stroke-opacity:1"
       id="path1-2"
       cx="24.030693"
       cy="23.787796"
       r="11.867708" /><path
       sodipodi:type="star"
       style="fill:#23727b;fill-opacity:0;stroke:#ffffff;stroke-width:2.09794178;stroke-linecap:round;stroke-linejoin:round;stroke-dasharray:none;stroke-opacity:1"
       id="path2"
       inkscape:flatsided="false"
       sodipodi:sides="13"
       sodipodi:cx="31.647013"
       sodipodi:cy="31.647013"
       sodipodi:r1="30.839689"
       sodipodi:r2="40.062508"
       sodipodi:arg1="0.80952146"
       sodipodi:arg2="1.0377668"
       inkscape:rounded="0.22"
       inkscape:randomized="0"
       d="m 52.921617,53.973626 c -1.920055,1.879386 1.415103,10.843999 -0.917045,12.178086 -2.453061,1.403255 -9.188581,-5.660499 -11.895527,-4.848664 -2.573519,0.77182 -3.786446,10.259516 -6.471442,10.356988 -2.824203,0.102526 -5.505519,-9.28227 -8.27968,-9.821406 -2.63742,-0.512561 -8.120566,7.324702 -10.543309,6.163229 C 12.26626,66.780168 14.253404,57.224275 12.047556,55.457677 9.9504356,53.778156 1.4531933,58.169562 -0.15227605,56.015225 -1.8409833,53.749192 4.359391,46.21134 3.2271882,43.621987 2.1507926,41.160265 -7.41393,41.099797 -7.8343319,38.446126 -8.2765301,35.654873 0.71664306,31.861894 0.91745984,29.042975 1.1083782,26.363002 -7.3326621,21.864512 -6.4716875,19.319433 -5.5660744,16.642401 4.1596701,17.463221 5.6475017,15.060516 7.0619969,12.776243 1.6783796,4.8702804 3.6234918,3.0168399 5.6694511,1.0673053 13.899716,6.3138842 16.333718,4.8778243 c 2.314028,-1.3652752 1.221156,-10.8675489 3.804804,-11.6047501 2.717601,-0.7754225 7.566932,7.6949872 10.389504,7.55455659 2.683445,-0.13350867 6.131681,-9.05523729 8.761983,-8.50731549 2.766673,0.5763296 3.124146,10.3301013 5.688671,11.5174709 2.438117,1.1288432 9.637513,-5.16848 11.711897,-3.46095737 C 58.872511,2.1728804 54.656234,10.975543 56.37521,13.2187 c 1.634246,2.132591 10.935506,-0.09769 11.978757,2.378265 1.097339,2.604319 -6.72679,8.439288 -6.247159,11.224354 0.455989,2.647787 9.728307,4.995486 9.501428,7.672654 -0.238642,2.81597 -9.878209,4.346524 -10.747802,7.035472 -0.82673,2.556408 6.292469,8.944254 4.847436,11.209332 -1.519953,2.382515 -10.76665,-0.741977 -12.786253,1.234849 z"
       inkscape:transform-center-x="0.20448627"
       inkscape:transform-center-y="-1.7752158"
       transform="matrix(0.47133395,0,0,0.48204148,9.075116,8.4800488)" /></g></svg>

<svg xmlns="http://www.w3.org/2000/svg" xml:space="preserve" width="48" height="48"><g fill="none"><circle cx="23.989" cy="23.899" r="9.868" style="fill:#23727b;fill-opacity:0;stroke:#000;stroke-width:1;stroke-linecap:round;stroke-linejoin:round;stroke-dasharray:none"/><circle cx="24.031" cy="23.788" r="11.868" style="fill:#23727b;fill-opacity:0;stroke:#000;stroke-width:1;stroke-linecap:round;stroke-linejoin:round;stroke-dasharray:none"/><path d="M52.922 53.974c-1.92 1.879 1.415 10.844-.917 12.178-2.453 1.403-9.189-5.66-11.896-4.849-2.573.772-3.786 10.26-6.471 10.357-2.825.103-5.506-9.282-8.28-9.821-2.637-.513-8.12 7.324-10.543 6.163-2.549-1.222-.562-10.778-2.767-12.544-2.098-1.68-10.595 2.712-12.2.557-1.689-2.266 4.511-9.804 3.38-12.393C2.15 41.16-7.415 41.1-7.835 38.446c-.443-2.791 8.55-6.584 8.751-9.403.191-2.68-8.25-7.178-7.389-9.724.906-2.677 10.632-1.856 12.12-4.258 1.414-2.285-3.97-10.19-2.025-12.044 2.046-1.95 10.277 3.297 12.71 1.86C18.649 3.514 17.556-5.99 20.14-6.726 22.856-7.502 27.705.968 30.528.828 33.211.694 36.66-8.228 39.29-7.68c2.767.577 3.124 10.33 5.689 11.518C47.417 4.967 54.616-1.331 56.69.377c2.182 1.796-2.035 10.599-.316 12.842 1.634 2.132 10.936-.098 11.979 2.378 1.097 2.604-6.727 8.44-6.247 11.224.456 2.648 9.728 4.996 9.501 7.673-.238 2.816-9.878 4.346-10.748 7.035-.826 2.557 6.293 8.945 4.848 11.21-1.52 2.382-10.767-.742-12.786 1.235" style="fill:#23727b;fill-opacity:0;stroke:#000;stroke-width:2.09794178;stroke-linecap:round;stroke-linejoin:round;stroke-dasharray:none" transform="matrix(.47133 0 0 .48204 9.075 8.48)"/></g></svg>
